flaticon/office/pencil.svg

<svg xmlns="http://www.w3.org/2000/svg" width="32" height="32" viewBox="0 0 24 24">
    <path d="M 23.261719 1.238281 L 22.742188 0.71875 C 21.824219 -0.238281 20.308594 -0.238281 19.347656 0.71875 L 3.902344 16.164062 C 3.855469 16.183594 3.8125 16.214844 3.773438 16.253906 L 2.65625 17.371094 C 2.5625 17.464844 2.523438 17.585938 2.542969 17.707031 L 0.0625 23.441406 C -0.0195312 23.601562 0.0195312 23.761719 0.140625 23.878906 C 0.21875 23.960938 0.300781 24 0.421875 24 C 0.460938 24 0.539062 24 0.578125 23.960938 L 6.53125 21.445312 C 6.648438 21.40625 6.730469 21.285156 6.769531 21.164062 L 7.644531 20.289062 C 7.691406 20.269531 7.734375 20.242188 7.769531 20.207031 L 23.261719 4.710938 C 23.742188 4.273438 23.980469 3.632812 23.980469 2.996094 C 23.980469 2.355469 23.742188 1.71875 23.261719 1.238281 Z M 19.328125 1.894531 L 22.144531 4.710938 L 21.027344 5.832031 L 18.207031 3.011719 Z M 16.527344 4.6875 L 17.632812 5.789062 L 6.890625 16.53125 L 5.773438 15.414062 Z M 5.234375 15.953125 L 6.648438 17.371094 C 6.730469 17.449219 6.808594 17.492188 6.929688 17.492188 C 7.007812 17.492188 7.128906 17.449219 7.207031 17.371094 L 18.46875 6.070312 C 18.628906 5.910156 18.628906 5.671875 18.46875 5.511719 L 17.089844 4.128906 L 17.648438 3.570312 L 20.464844 6.390625 L 7.488281 19.367188 L 4.652344 16.53125 Z M 1.179688 22.84375 L 3.09375 18.371094 L 5.652344 20.925781 Z M 6.371094 20.527344 L 3.535156 17.691406 L 4.09375 17.132812 L 6.929688 19.964844 Z M 22.703125 4.152344 L 19.886719 1.335938 L 19.90625 1.316406 C 20.546875 0.679688 21.542969 0.679688 22.183594 1.316406 L 22.703125 1.835938 C 23.023438 2.15625 23.183594 2.554688 23.183594 2.996094 C 23.183594 3.433594 23.023438 3.832031 22.703125 4.152344 Z M 22.703125 4.152344"/>
</svg>

<svg xmlns="http://www.w3.org/2000/svg" width="32" height="32" viewBox="0 0 24 24">
    <path d="M23.262 1.238l-.52-.52c-.918-.956-2.433-.956-3.394 0L3.902 16.165a.405.405 0 0 0-.129.09L2.656 17.37a.383.383 0 0 0-.113.336l-2.48 5.734a.356.356 0 0 0 .078.438c.078.082.16.121.28.121.04 0 .118 0 .157-.04l5.953-2.515c.117-.039.2-.16.239-.28l.875-.876a.386.386 0 0 0 .125-.082L23.262 4.711c.48-.438.718-1.078.718-1.715 0-.64-.238-1.277-.718-1.758zm-3.934.657l2.817 2.816-1.118 1.121-2.82-2.82zm-2.8 2.793l1.105 1.101L6.89 16.531l-1.118-1.117zM5.233 15.953l1.414 1.418c.082.078.16.121.282.121.078 0 .199-.043.277-.12L18.469 6.07a.385.385 0 0 0 0-.558l-1.38-1.383.56-.559 2.816 2.82L7.488 19.368l-2.836-2.836zm-4.054 6.89l1.914-4.472 2.558 2.555zm5.191-2.316l-2.836-2.836.559-.558 2.836 2.832zM22.703 4.152l-2.816-2.816.02-.02a1.596 1.596 0 0 1 2.277 0l.52.52c.32.32.48.719.48 1.16 0 .438-.16.836-.48 1.156zm0 0"/>
</svg>
